X:6
T:Down With the French
M:6/8
L:1/8
Z:abc2nwc
K:C
G2E G2E|C2C CDE|FDE FDE|F2D B,A,G,|
G2E G2E|C2C CDE|F2D B,G,B,|C3-C3:|
|:D2D EDC|B,2A, G,2G,|C2C ECE|G2E C2C|
D2D EDC|B,2A, G,2G,|A,B,C DCB,|C3C3:|
|:g2e g2e|c2c cde|fde fde|f2d BAG|
g2e g2e|c2c cde|f2d BGB|c3-c3:|
|:d2d edc|B2A G2G|c2c ece|g2e c2c|
d2d edc|B2A G2G|ABc dcB|c3c3:|
